xNet/artwork/rolex2.svg

<?xml version="1.0" encoding="UTF-8" standalone="no"?><!-- Created with Inkscape (http://www.inkscape.org/) -->

<svg xmlns:dc="http://purl.org/dc/elements/1.1/" xmlns:cc="http://creativecommons.org/ns#" xmlns:rdf="http://www.w3.org/1999/02/22-rdf-syntax-ns#" xmlns:svg="http://www.w3.org/2000/svg" xmlns="http://www.w3.org/2000/svg"
	xmlns:sodipodi="http://sodipodi.sourceforge.net/DTD/sodipodi-0.dtd" xmlns:inkscape="http://www.inkscape.org/namespaces/inkscape" id="svg2" sodipodi:version="0.32" inkscape:version="0.48.5 r10040" width="360" height="360" sodipodi:docname="role2.svg"
	version="1.0">
	<metadata id="metadata7">
		<rdf:RDF>
			<cc:Work rdf:about="">
				<dc:format>image/svg+xml</dc:format>
				<dc:type rdf:resource="http://purl.org/dc/dcmitype/StillImage" />
			</cc:Work>
		</rdf:RDF>
	</metadata>
	<defs id="defs5" />
	<sodipodi:namedview inkscape:window-height="721" inkscape:window-width="908" inkscape:pageshadow="2" inkscape:pageopacity="0.0" borderopacity="1.0" bordercolor="#666666" pagecolor="#ffffff" id="base" inkscape:showpageshadow="false" borderlayer="top"
		inkscape:zoom="0.70710678" inkscape:cx="169.2759" inkscape:cy="5.9905448" inkscape:window-x="823" inkscape:window-y="317" inkscape:current-layer="svg2" showgrid="false" inkscape:window-maximized="0" />
	<path style="fill:#a40000;fill-opacity:1;fill-rule:evenodd;stroke:none"
		d="M 167.84375 15.625 C 167.74366 15.62515 167.62923 15.636998 167.53125 15.65625 C 161.26041 16.888389 146.33794 28.793628 139.53125 36.8125 C 132.72457 44.831366 113.14645 68.152779 103.84375 84.8125 C 101.24649 89.4638 88.847153 110.89177 76.15625 137.1875 C 63.465355 163.48323 56.334849 195.89481 53.59375 207.25 C 48.111571 229.96038 46.892285 257.32552 47.65625 262.90625 C 49.184187 274.06769 54.575753 309.65513 68.84375 325.375 C 83.111752 341.09487 102.66666 350.04463 108.9375 348.8125 C 112.07291 348.19642 135.30884 346.21122 158.5625 336.625 C 181.81616 327.03878 205.06214 309.84052 210.28125 305.71875 C 220.71946 297.47522 258.89912 268.97445 269 257.375 C 279.10088 245.77556 324.64921 189.07018 318.65625 182.96875 C 312.66329 176.86732 266.14105 158.79959 257.84375 153.1875 C 239.54732 140.81224 223.08798 126.31445 216.6875 115.75 C 203.03003 93.207386 203.47407 90.422249 193.96875 71.59375 C 184.61194 53.059437 174.14954 15.615532 167.84375 15.625 z M 155.75 136.21875 C 182.61727 135.87017 175.11466 183.12907 175.1875 185.15625 L 131.125 145.1875 C 141.49851 138.89705 149.54986 136.29919 155.75 136.21875 z M 222.125 189.6875 C 248.99227 189.33892 241.48967 236.59782 241.5625 238.625 L 197.5 198.6875 C 207.87351 192.39706 215.92486 189.76794 222.125 189.6875 z M 119.6875 229 C 132.38752 228.97491 141.85964 233.56173 147.09375 239.84375 C 153.54325 247.5845 157.72125 258.1423 156.34375 279.09375 C 154.36882 309.13249 147.02529 328.04047 142.1875 324.46875 C 135.82843 319.77386 136.70439 282.57323 122.53125 265.5625 C 109.12706 249.47465 78.932167 261.27631 75.96875 249.84375 C 74.184027 242.95842 93.343591 233.59714 105.96875 230.65625 C 110.88145 229.51189 115.45416 229.00836 119.6875 229 z "
		id="path2995" />
</svg>

<svg xmlns="http://www.w3.org/2000/svg" width="360" height="360" version="1.0"><path d="M167.844 15.625c-.1 0-.215.012-.313.031-6.27 1.232-21.193 13.138-28 21.157-6.806 8.018-26.385 31.34-35.687 48-2.598 4.65-14.997 26.079-27.688 52.375-12.69 26.295-19.821 58.707-22.562 70.062-5.482 22.71-6.702 50.076-5.938 55.656 1.528 11.162 6.92 46.75 21.188 62.469 14.268 15.72 33.823 24.67 40.094 23.438 3.135-.617 26.37-2.602 49.625-12.188 23.253-9.586 46.5-26.784 51.718-30.906 10.438-8.244 48.618-36.745 58.719-48.344 10.1-11.6 55.65-68.305 49.656-74.406-5.993-6.102-52.515-24.17-60.812-29.781-18.297-12.376-34.756-26.874-41.156-37.438-13.658-22.543-13.214-25.328-22.72-44.156-9.356-18.535-19.818-55.978-26.124-55.969zM155.75 136.219c26.867-.349 19.365 46.91 19.438 48.937l-44.063-39.969c10.374-6.29 18.425-8.888 24.625-8.968zm66.375 53.469c26.867-.35 19.365 46.91 19.438 48.937L197.5 198.688c10.374-6.29 18.425-8.92 24.625-9zM119.688 229c12.7-.025 22.172 4.562 27.406 10.844 6.45 7.74 10.627 18.298 9.25 39.25-1.975 30.038-9.319 48.946-14.156 45.375-6.36-4.695-5.484-41.896-19.657-58.906-13.404-16.088-43.599-4.287-46.562-15.72-1.785-6.885 17.375-16.246 30-19.187 4.912-1.144 9.485-1.648 13.719-1.656z" style="fill:#a40000;fill-opacity:1;fill-rule:evenodd;stroke:none"/></svg>
